X:1
T:Title
%%score { 1 | 2 }
L:1/8
M:3/4
K:Db
V:1 treble nm="Grand Piano"
V:2 bass 
V:1
 z2 z2[Q:1/4=100] F2 | F6 |[M:7/8] F2 D3 F2 | [CF]2 [CE]3 z [CE] |[M:3/4] [CE]6 | %5
[M:7/8] [CE]2 [DF]2 [EG]3 |[M:3/4] [GB]4 [GB]2 |[M:7/8] [GB]2 [FA]3 [FA][FA] |[M:3/4] [FA]4 [EG]2 | %9
 [DF]4 [CE]2 |[M:4/4] [DF]6 z [FA] |[M:3/4] [FA]4 [FA]2 | [Fd]4 [Fd]2 | d>d d2 d2 | %14
[M:7/8] d2 B3 B2 |[M:3/4] A6 | [CEG]6 | [DF]6 |] %18
V:2
 z2 z2 [D,A,D]2 | [D,A,D]6 |[M:7/8] [D,A,D]2 [D,F,A,]3 [D,A,D]2 | [A,,A,]2 [A,,A,]3 z [A,,A,] | %4
[M:3/4] [A,,A,]6 |[M:7/8] [A,,A,]2 [A,,A,]2 [A,,A,]3 |[M:3/4] [D,D]4 [D,D]2 | %7
[M:7/8] [D,D]2 [D,D]3 [D,D][D,D] |[M:3/4] [D,D]4 [E,B,]2 | [A,,A,]4 [A,,A,]2 | %10
[M:4/4] [D,A,]6 z [D,D] |[M:3/4] [D,D]4 [D,D]2 | [D,A,]4 [D,A,]2 | %13
 [G,B,G]>[G,B,G] [G,B,G]2 [G,B,G]2 |[M:7/8] [G,B,G]2 [G,DG]3 [G,DG]2 |[M:3/4] [A,DF]6 | [A,,A,]6 | %17
 [D,A,]6 |] %18

